!!!COM: des Prez, Josquin
!!!CDT: ~1450-1521/08/27
!!!OTL: En l'ombre d'ung buissonnet
!!!AGN: Chanson
!!!SCT: NJE 27.7
!!!SCA: New Josquin Edition 27.7
!!!voices: 3
**kern	**text	**kern	**text	**kern	**text
*staff3	*	*staff2	*	*staff1	*
*Ivox	*	*Ivox	*	*Ivox	*
*I"Bassus	*	*I"Tenor	*	*I"Superius	*
*I'B	*	*I'T	*	*I'A	*
*clefGv2	*	*clefGv2	*	*clefG2	*
*k[b-]	*	*k[b-]	*	*k[b-]	*
*M2/1	*	*M2/1	*	*M2/1	*
*met(C|)	*	*met(C|)	*	*met(C|)	*
=1-	=1-	=1-	=1-	=1-	=1-
0r	.	1c	En	1r	.
.	.	1c	l'om-	1g	En
=2	=2	=2	=2	=2	=2
1G	En	2.G/	-bre	1g	l'om-
.	.	4A/	.	.	.
1G	l'om-	4B-\	.	2.d/	-bre
.	.	4c\	.	.	.
.	.	[2d\	d'ung	.	.
.	.	.	.	4e/	.
=3	=3	=3	=3	=3	=3
2D/	-bre	2d\]	.	4f/	.
.	.	.	.	4g/	.
1F	d'ung	1c	buis-	1a	d'ung
2G/	buis-	2Bni\	-son-	[2g/	buis-
=4	=4	=4	=4	=4	=4
1A	-so-	1c	-net,	2g/]	.
.	.	.	.	2f#i/	-so-
1G	-net,	1r	.	1g	-net,
=5	=5	=5	=5	=5	=5
1.c	Tout	1.e-	Tout	0r	.
2B-\	au	2d\	au	.	.
=6	=6	=6	=6	=6	=6
2.e-i\	long	1.c	long	0r	.
4d\	.	.	.	.	.
2e-i\	.	.	.	.	.
[2d\	d'u-	2B-\	.	.	.
=7	=7	=7	=7	=7	=7
4d\]	.	2.G/	d'u-	1.b-	Tout
4c\	.	.	.	.	.
4B-\	.	.	.	.	.
4A/	.	4A/	-ne-	.	.
2G/	-ne	2B-\	ri-	.	.
2F/	ri-	[2c\	-vie-	2a/	au
=8	=8	=8	=8	=8	=8
2.E-i/	-vie-	4c\]	.	1.g	long
.	.	4B-\	.	.	.
.	.	1B-	.	.	.
4D/	.	.	.	.	.
1C	.	.	.	.	.
.	.	2A/	.	2f/	.
=9	=9	=9	=9	=9	=9
2BB-/	-re,	0B-	-re,	2.d/	d'u-
2.B-\	d'u-	.	.	.	.
.	.	.	.	4e/	-ne
.	.	.	.	2f/	ri-
4A/	.	.	.	.	.
4G/	.	.	.	[2g/	-vie-
4F/	.	.	.	.	.
=10	=10	=10	=10	=10	=10
2E/	-ne	0r	.	4g/]	.
.	.	.	.	4f/	.
2F/	ri-	.	.	1f	.
1G	-vie-	.	.	.	.
.	.	.	.	2e/	.
=11	=11	=11	=11	=11	=11
1F	-re,	2r	.	1f	-re,
.	.	2c\	Trou-	.	.
1C	.	2c\	-vay	2r	.
.	.	2c\	Ro-	2g/	Trou-
=12	=12	=12	=12	=12	=12
2r	.	2.G/	-bin	2g/	-vay
2G/	Trou-	.	.	2g/	Ro-
.	.	4A/	.	.	.
2G/	-vay	4B-\	.	2.d/	-bin
.	.	4c\	.	.	.
2G/	Ro-	[2d\	le	.	.
.	.	.	.	4e/	.
=13	=13	=13	=13	=13	=13
2D/	-bin	2d\]	.	4f/	.
.	.	.	.	4g/	.
1F	le	1c	filz	1a	le
2G/	filz	2Bni\	Mar-	[2g/	filz
=14	=14	=14	=14	=14	=14
1A	Mar-	1c	-guet.	2g/]	.
.	.	.	.	2f#i/	Mar-
1G	-guet.	1r	.	1g	-guet
=15	=15	=15	=15	=15	=15
1.c	Qui	1.e-	Qui	0r	.
2B-\	pri-	2d\	pri-	.	.
=16	=16	=16	=16	=16	=16
2.e-i\	-oit	1.c	-oit	0r	.
4d\	.	.	.	.	.
2e-i\	.	.	.	.	.
[2d\	sa	2B-\	sa	.	.
=17	=17	=17	=17	=17	=17
4d\]	.	2.G/	da-	1.b-	Qui
4c\	.	.	.	.	.
4B-\	.	.	.	.	.
4A/	.	4A/	.	.	.
2G/	da-	2B-\	-me	.	.
2F/	-me	[2c\	chie-	2a/	pri-
=18	=18	=18	=18	=18	=18
2.E-i/	chie-	4c\]	.	1.g	-oit
.	.	4B-\	.	.	.
.	.	1B-	.	.	.
4D/	.	.	.	.	.
1C	.	.	.	.	.
.	.	2A/	.	2f/	sa
=19	=19	=19	=19	=19	=19
2BB-/	-re,	0B-	-re	2.d/	da-
1B-	sa	.	.	.	.
.	.	.	.	4e/	.
.	.	.	.	2f/	-me
4A/	.	.	.	[2g/	chie-
4G/	.	.	.	.	.
=20	=20	=20	=20	=20	=20
2c\	da-	0r	.	4g/]	.
.	.	.	.	4f/	.
2F/	-me	.	.	1f	.
1G	chie-	.	.	.	.
.	.	.	.	2e/	.
=21	=21	=21	=21	=21	=21
1F	-re	2c\	Et	1f	-re
.	.	2c\	luy	.	.
2B-\	Et	[1d	dit	1r	.
2B-\	luy	.	.	.	.
=22	=22	=22	=22	=22	=22
2B-\	dit	2d\]	.	2g/	Et
2B-\	en	2d\	en	2g/	luy
2c\	tel	2e\	tel	2g/	dit
2c\	ma-	2e\	ma-	2g/	en
=23	=23	=23	=23	=23	=23
2F/	-nie-	2.f\	-nie-	2a/	tel
2F/	-re:	.	.	2a/	ma-
.	.	4e\	-re:	.	.
1G	Je	2d\	Je	2.b-\	-nie-
.	.	2d\	vous	.	.
.	.	.	.	4a/	-re:
=24	=24	=24	=24	=24	=24
2G/	vous	2.d\	ai-	2g/	Je
1G	ai-	.	.	2g/	vous
.	.	4c\	.	.	.
.	.	4B-\	.	2d/	ai-
.	.	4A/	.	.	.
2G/	-me	[2B-\	-me,	[2e-/	-me
=25	=25	=25	=25	=25	=25
1D	fin	2B-\]	.	2e-/]	.
.	.	1A	fin	1d	fin
1E-i	ceur	.	.	.	.
.	.	2G/	ceur	2c/	ceur
=26	=26	=26	=26	=26	=26
[0D	doulx.	1A	doulx.	0d	doulx.
.	.	1r	.	.	.
=27	=27	=27	=27	=27	=27
0D]	.	1B-	A-	0r	.
.	.	2A/	-donc	.	.
.	.	2A/	res-	.	.
=28	=28	=28	=28	=28	=28
1E-	A-	2.G/	-pon-	0r	.
.	.	4A/	.	.	.
2D/	-donc	4B-\	.	.	.
.	.	4c\	.	.	.
2BB-/	res-	[2d\	-dit	.	.
=29	=29	=29	=29	=29	=29
1C	-pon-	2d\]	.	1e-i	A-
.	.	1c	la	.	.
1G	-dit	.	.	2d/	-donc
.	.	2Bni\	ber-	2d/	res-
=30	=30	=30	=30	=30	=30
2.A/	la	1c	-gie-	2.c/	-pon-
4B-\	.	.	.	4d/	.
2c\	.	1c	-re:	4e-i/	.
.	.	.	.	4f/	.
2C/	ber-	.	.	[2g/	-dit
=31	=31	=31	=31	=31	=31
1F	-gie-	0r	.	2g/]	.
.	.	.	.	1f	la
1G	.	.	.	.	.
.	.	.	.	2e/	ber-
=32	=32	=32	=32	=32	=32
0F	-re:	1r	.	2.f/	-gie-
.	.	.	.	4g/	.
.	.	1f	Ro-	4a/	.
.	.	.	.	4b-\	.
.	.	.	.	[2cc\	.
=33	=33	=33	=33	=33	=33
0r	.	1e-i	-byn,	2cc\]	.
.	.	.	.	2g/	-re:
.	.	2c\	com-	2a/	com-
.	.	[2d\	-ment	[2b-\	-ment
=34	=34	=34	=34	=34	=34
0r	.	4d\]	.	4b-\]	.
.	.	4c\	.	4a/	.
.	.	4B-\	.	4g/	.
.	.	4A/	.	4f/	.
.	.	2G/	.	4e-i/	.
.	.	.	.	4d/	.
.	.	[2d\	l'en-	[2f/	l'en-
=35	=35	=35	=35	=35	=35
0r	.	2d\]	.	2f/]	.
.	.	1c	-ten-	2e-i/	-ten-
.	.	.	.	1d	-dez
.	.	2Bni\	-des	.	.
=36	=36	=36	=36	=36	=36
1r	.	2.c\	vous,	0c	vous,
.	.	4d\	.	.	.
1c	Ro-	4e\	.	.	.
.	.	4f\	.	.	.
.	.	[2g\	.	.	.
=37	=37	=37	=37	=37	=37
1B-	-byn,	2g\]	.	0r	.
.	.	2d\	com-	.	.
2G/	com-	2e\	.	.	.
[2A/	-ment	[2f\	-ment	.	.
=38	=38	=38	=38	=38	=38
4A/]	.	4f\]	.	0r	.
4G/	.	4e\	.	.	.
4F/	.	4d\	.	.	.
4E/	.	4c\	.	.	.
2D/	.	4B-\	.	.	.
.	.	4A/	.	.	.
[2A/	l'en-	[2c\	l'en-	.	.
=39	=39	=39	=39	=39	=39
2A/]	.	2c\]	.	1r	.
1G	-ten-	2B-\	-ten-	.	.
.	.	1A	-dez	1cc	Ro-
2F#i/	-dez	.	.	.	.
=40	=40	=40	=40	=40	=40
1G	vous,	2G/	vous,	1b-	-byn,
.	.	2d\	Ro-	.	.
2r	.	2e-i\	-byn	2g/	com-
2F/	Ro-	2c\	com-	[2a/	-ment
=41	=41	=41	=41	=41	=41
2F/	-byn,	2.d\	-ment	4a/]	.
.	.	.	.	4g/	.
2F/	com-	.	.	4f/	.
.	.	4c\	.	4e/	.
2G/	-ment	2B-\	.	2d/	.
2F/	l'en-	2A/	l'en-	[2a/	l'en-
=4	=42	=42	=42	=42	=42
2G/	-ten-	2B-\	-ten-	2a/]	.
2C/	.	2c\	.	1g	-ten-
1D	-dez	1A	-dez	.	.
.	.	.	.	2f#i/	-dez
=43	=43	=43	=43	=43	=43
0dl	vous?	0Gl	vous?	0gl	vous?
==	==	==	==	==	==
*-	*-	*-	*-	*-	*-
!!!RDF**kern: l=long note in original notation
!!!RDF**kern: i=editorial accidental
!!!ENC: Jesse Rodin; Victoria Chang 2011/05/30
!!!END: 2011/05/30/
!!!EED: Jesse Rodin
!!!EEV: 2011/08/11/
!!attribution-level@Jos: 2 (provisionally attributable [parentheses checkmark])
!!!ONB: Translated from MusicXML and edited on 2011/08/11/ by Craig Sapp
!!muse2ps: C^@{COM}\n@{SCT}^i2I150v110,110,130z18c49l2600
